X:210
T: Caomeng nong jigong
N: C1702
O: China,Taiwan
S: IV, 632]
R: Xiaodiao, Erge, Gezai xi]
M: 4/4
L: 1/16
K: D
B4F4B2d2B2A2 | F4B2A2F8 |
B4F4B2d2B2A2 | F2E2F2A2B8 |
B4d4B2d2B2A2 | F4B2A2F8 |
B4F4B2d2B2A2 | F2E2F2A2B2
d2B2A2 | F4B4F2A2F2E2 | D4E2D2B,8 |
F2FED2E2F6A2 | E2F2E2D2B,8

@@@ Tune index: 6765
